X:168
T: Liebesklage (2-70) S. 211
N: P0943
O: Lothringen
S: PINCK, Louis: Verklingende Weisen, Bd 2, Metz 1928]
R: Liebesklage, Treue]
M: 4/4
L: 1/8
K: D
A2 | A2A2G2A2 | =c2B2A2G2 |
c2B2A2G2 | A2=F2E4 |
A2A2D2EF | G2=FED2=C2 |
F2G2A2G2 | =F2E2D2

